X:1
T:Crudel tu vuoi
T:Crudel tu vuoi partire
T:Claudio Saracini
T:Aria
T:Source : Le secondo Musische per cantar e sonar---Venetia---A.Vincenti---1620. Editor : André Vierendeels 06/12/15).
T:Notes : Original clefs : C1, F4 
C:Claudio Saracini
%%score 1 2
L:1/8
Q:1/4=85
M:4/4
K:F
V:1 treble nm="Soprano" snm="S"
V:2 bass nm="BC" snm="BC"
V:1
 z2 d2 d2 d2 | B2 c2 d2 d2 | z2 f2 _e2 B2 | c3 d B4 :: d6 A2 | c6 GA | B8 | A4 z2 c2 | F2 A2 G3 G | %9
w: Cru- del, tu|vuoi par- ti- re,|non m'el ne-|gar ch'io so.|Ahi do-|lor, ahi mar-|ti-|ri, mar-|tir ond' io mor-|
w: Per- fi- do'e|lu- sin- ghie- ro,|do- ve ri-|vol- g'il pie.|non fu,|non fu mai|ve-|ro, ch'ar-|de- sti'un- qua per|
w: Non fur, non|fur ve- ra- ci,|quei pian- ti'e|quei so- spir.|Ah lu-|sin- ghe men-|di-|ce, ah|men- ti- ti de-|
w: O se fue-|ghiot- t'A- mo- re,|qual che fa-|vil- la'in sen.|Dall' in-|co- stan- te|co-|re, spa-|ri com' un ba-|
w: Las- sa ch'io|pian- go'e gri- do,|e lei lie-|to sen va.|Ah dis-|le- al, ah'in-|fi-|do, ahi|cor sen- za pie-|
w: Ren- de- m'in-|giu- sto'A- man- te,|ren- de- m'in-|gra- to'il cor'.|Fer- ma,|fer- ma le|pian-|te, fa-|mi giu- sti- ti'A-|
w: A- mor com'|il com- por- ti,|com' il con-|sen- ti Ciel.|Ch'el tra-|di- tor sen|por-|ti, un|cor tan- ta fe-|
w: Mi- se- ra|me quai pian- ti,|ver- sa- ti'o|not- t'e di.|Quan- ti|so- spir e|quan-|ti, dal|cor tras- si'e per|
 F4 z2 d2 | c2 G2 A3 A | G8 :| %12
w: ro, mar-|tir ond' io mor-|ro.|
w: me, ch'ar-|de- sti'un- que per|me.|
w: sir, ah|men- ti- ti de-|sir.|
w: len, spa-|ri com' un ba-|len.|
w: ta, ahi|cor sen- za pie-|ta.|
w: mor, fa-|mi giu- sti- ti'A-|mor.|
w: del, un|cor tan- ta fe-|del.|
w: chi, dal|cor tras- si'e per|chi.|
V:2
 z2 G,2 G,2 ^F,2 | G,2 C,2 B,,2 B,,2 | B,,4 C,2 D,2 | F,3 F, B,,4 :: %4
"^9)    E s'io li fui fedele, Amor lo fai ben tu, Amor lo fai ben tu.\n10)   Misera giovinetta,  ah che sara di me, ah che sara di me.\n11)   Filli stracciasi in tanto, loro del biondo crin, loro del biondo crin.\n12)   E per pieta de i venti, ferman nell'alto il Sol, ferman nell'alto il Sol." G,2 D,E, F,4- | %5
 F,2 C,D, _E,4- | E,2 B,,C, D,4- |"^A-\nah\nlo-\nfer-" D,4 A,,4 | B,,2 F,,2 C,2 C,2 | F,,4 =B,,4 | %10
 C,2 _E,2 D,4 | G,,8 :| %12

